X: 19448
T: Jackson's
R: reel
M: 4/4
K: Edorian
Bd|:e3 d ABdB|BAGB AFGF|EFGA BAGB|ABdf eB ~B2|
eEeB ABdB|BAGB AFGF|EFGA (3Bcd ef|gfed Beed:|
e3 d (3Bcd eg|fddc defa|gfed (3Bcd ef|dBAF FEEd|
e3 d (3Bcd eg|fddc defa|abaf gfed|eBBA GEEd|
eEed (3Bcd eg|fddc defa|gfed (3Bcd ef|gfga bgef|
gbef gbeg|fddc defa|abaf gfed|eBBd (3efg fd||

